X: 542
T: Bruneau's Waltz
C:Phillipe Bruneau
S:Flos Headford <flos:madasafish.com> tradtunes 2010-4-7
R:waltz 32
Z:PJHeadford
M:3/4
L:1/8
Q:1/4=180
K:G
|: B6 | ABABAB | G6 | FGFGFG | E6 |\
FGFGFG | E2F2 G2 |1 A2G2 A2 :|2 A6 |]
|: B2G2 D2 | E4 G2 | FG A2F2 | D6 |\
B2G2 D2 | E4 G2 | FG A2F2 | G6 :|]
